local/share/icons/dracula-icons-main/scalable/apps/gnome-layout-switcher.svg

<?xml version="1.0" encoding="UTF-8"?>
<svg xmlns="http://www.w3.org/2000/svg" xmlns:xlink="http://www.w3.org/1999/xlink" width="64" height="64" viewBox="0 0 64 64">
<path fill-rule="nonzero" fill="rgb(19.215686%, 25.490196%, 28.627451%)" fill-opacity="1" d="M 8.464844 1.324219 C 12.410156 1.324219 15.609375 4.519531 15.609375 8.464844 C 15.609375 12.410156 12.410156 15.609375 8.464844 15.609375 C 4.519531 15.609375 1.324219 12.410156 1.324219 8.464844 C 1.324219 4.519531 4.519531 1.324219 8.464844 1.324219 Z M 8.464844 1.324219 "/>
<path fill-rule="nonzero" fill="rgb(0.392157%, 82.745098%, 66.666667%)" fill-opacity="1" d="M 12.511719 4.496094 C 12.421875 4.5 12.335938 4.539062 12.269531 4.605469 L 10.183594 6.714844 C 9.726562 6.273438 9.105469 6 8.425781 6 C 7.03125 6 5.890625 7.140625 5.890625 8.535156 C 5.890625 8.984375 6.007812 9.402344 6.214844 9.769531 L 4.386719 11.59375 L 3.003906 10.382812 C 2.855469 10.253906 2.632812 10.269531 2.5 10.417969 C 2.4375 10.488281 2.40625 10.578125 2.414062 10.675781 C 2.421875 10.769531 2.464844 10.855469 2.535156 10.917969 L 4.167969 12.347656 C 4.308594 12.46875 4.523438 12.464844 4.65625 12.332031 L 6.648438 10.339844 C 7.105469 10.789062 7.734375 11.070312 8.425781 11.070312 C 9.820312 11.070312 10.957031 9.929688 10.957031 8.535156 C 10.957031 8.078125 10.835938 7.648438 10.621094 7.277344 C 10.632812 7.269531 10.640625 7.261719 10.648438 7.253906 L 12.542969 5.339844 L 13.933594 6.542969 C 14.003906 6.605469 14.097656 6.632812 14.191406 6.628906 C 14.285156 6.621094 14.371094 6.578125 14.433594 6.503906 C 14.5625 6.355469 14.546875 6.132812 14.398438 6.003906 L 12.753906 4.585938 C 12.695312 4.53125 12.617188 4.503906 12.539062 4.5 C 12.527344 4.496094 12.519531 4.496094 12.511719 4.5 Z M 8.425781 6.710938 C 9.4375 6.710938 10.25 7.523438 10.25 8.535156 C 10.25 9.546875 9.4375 10.359375 8.425781 10.359375 C 7.414062 10.359375 6.601562 9.546875 6.601562 8.535156 C 6.601562 7.523438 7.414062 6.710938 8.425781 6.710938 Z M 8.425781 6.710938 "/>
</svg>

<svg width="64" height="64" version="1.1" viewBox="0 0 16.933 16.933" xmlns="http://www.w3.org/2000/svg">
 <rect x="1.3229" y="1.3229" width="14.287" height="14.287" rx="7.1436" ry="7.1436" fill="#314149" stroke-width=".96424"/>
 <path d="m12.513 4.498a0.35533 0.35533 0 0 0-0.24287 0.1064l-2.0878 2.11c-0.45621-0.44115-1.0751-0.71474-1.757-0.71474-1.3955 1.3e-6 -2.5356 1.1401-2.5356 2.5356 0 0.44728 0.1183 0.86749 0.32336 1.2329l-1.825 1.825-1.3851-1.2097a0.35529 0.35529 0 0 0-0.50147 0.03285 0.35529 0.35529 0 0 0 0.032845 0.50192l1.6349 1.4285a0.35533 0.35533 0 0 0 0.4862-0.01573l1.9929-1.9929c0.45822 0.45095 1.0861 0.73047 1.7769 0.73047 1.3955 0 2.5332-1.1377 2.5332-2.5332 0-0.45699-0.1241-0.88537-0.33724-1.2565a0.35529 0.35529 0 0 0 0.02775-0.025443l1.8921-1.9143 1.3915 1.2028a0.35529 0.35529 0 0 0 0.50192-0.036547 0.35529 0.35529 0 0 0-0.03701-0.50008l-1.6432-1.4197a0.35533 0.35533 0 0 0-0.21696-0.087433 0.35533 0.35533 0 0 0-0.02452 0zm-4.0877 2.2136c1.0115 0 1.8236 0.81211 1.8236 1.8236 0 1.0115-0.81211 1.8236-1.8236 1.8236s-1.8241-0.81211-1.8241-1.8236c0-1.0115 0.81258-1.8236 1.8241-1.8236z" color="#000000" color-rendering="auto" dominant-baseline="auto" fill="#01d3aa" image-rendering="auto" shape-rendering="auto" solid-color="#000000" stop-color="#000000" stroke-width=".23686" style="font-feature-settings:normal;font-variant-alternates:normal;font-variant-caps:normal;font-variant-east-asian:normal;font-variant-ligatures:normal;font-variant-numeric:normal;font-variant-position:normal;font-variation-settings:normal;inline-size:0;isolation:auto;mix-blend-mode:normal;paint-order:stroke markers fill;shape-margin:0;shape-padding:0;text-decoration-color:#000000;text-decoration-line:none;text-decoration-style:solid;text-indent:0;text-orientation:mixed;text-transform:none;white-space:normal"/>
</svg>
